X: 3892
T: Black Velvet Band, The
R: waltz
M: 3/4
K: Dmajor
a/a/|"D"a2a fga|gf4e|def dcB|"A7" A4-A f/f/|
"D" f2f "A7"ABc|"D" d2e f2f|"A7" efg cde|"D" d3-d2||

